!!!OTL: 388. Bunte Blumen.
!!!ARE: Europa, Mitteleuropa, Deutschland
!!!SCT: E0388
!!!TXL: @@DE
!!!YEM: Copyright 1995, estate of Helmut Schaffrath.
**kern	**text
*ICvox	*
*M6/4	*
*k[f#c#g#]	*
*A:	*
!LO:TX:a:t=Alid. Ldb. Nr. 144. Melodie des Mailiedes.	!
{4a	Mein
=1	=1
2a	Herʒ
4a	hat
2a	ſich
4f#	ge-
=2	=2
2.e	-ſel-
2b}	-let
{4cc#	ʒu
=3	=3
2b/	ei-
4a	-nem
2g#	Blüm-
4f#	-lein
=4	=4
[2.e	fein,
2e]}	.
{4a	das
=5	=5
2a	mir
4a	ſo
2a	wohl
4f#	ge-
=6	=6
2.e	-fäl-
2b}	-let,
{4cc#	durch
=7	=7
2b/	Lieb
4a	ſo
2g#	leid
4f#	ich
=8	=8
[2.e	Pein.
2e]}	.
{4e	He!
=9	=9
2a	wa-
4a	-rum
2g#	ſollt
4e	ich
=10	=10
2.a	trau-
2b}	-ren?
{4b	Nu
=11	=11
2b	rüh-
4b	-ret
2cc#	mich
4cc#	der
=12	=12
(<2b	Mai;
4a	.
2b)}	.
{4cc#	Schlag
=13	=13
2ee	auf,
4dd	mein
2cc#	Herʒ,
4b	mit
=14	=14
2.a	Freu-
2dd}	-den!
{4b	mein
=15	=15
2cc#	Trau-
4b	-ren
2a	iſt
4g#	ent-
=16	=16
[2.a	-ʒwei.
2a]}	.
==	==
!!!AGN: Liebes - Lied, Jahreszeiten, Fruehling
!!!ONB: ESAC (Essen Associative Code) Database: ERK1
!!!AMT: compound duple
!!!AIN: vox
!!!EED: Helmut Schaffrath
!!!EEV: 1.0
!!!RDF**kern: < = below
!!!GTL: Liebeslieder [Alte (aus dem 13. bis 17. Jahrh.) mit ihrem jungen Nachwuchs]
!!!URL-scan: https://rosdok.uni-rostock.de/mcrviewer/recordIdentifier/rosdok_ppn745177662/iview2/phys_0203.iview2?x=-2295.2751196172253&y=206.4516746350564&scale=0.23831242873432154&rotation=0&layout=singlePageLayout
!!!ENC: Anna Maria Matuszewska
!!!EEV: 2024/09/12
*-	*-
